X:64
%%scale 0.6
M:4/4
K:Dmaj
EFF2BFBF|AFF2DEFB|AddA BdAF|EDEF EDB,D|EFF2 BFBF|AFF2 DEFB|AddA BdAF|EDEF EDB,D|
eded fded|BABd edBe|edef abaf|edef edBd|edef abaf|edfd edBe|edef abaf|edef edBc|